X: 3689
T: Billy McCormack's
R: jig
M: 6/8
K: Adorian
|ABA ABg|edB gdB|~G3 BAG|dBG AGE|
ABA ABg|edB def|gfe fd(B|{d}B)AG A3:|
|:~a3 age|aba age|~g3 gdB|GAB deg|
~a3 age|edB def|gfe fd(B|{d}B)AG A3:|

